packages/ui-icons/src/Basic/32/Obedinyay_32.svg

<?xml version="1.0" encoding="utf-8"?>
<svg version="1.1" id="Слой_1" xmlns="http://www.w3.org/2000/svg" xmlns:xlink="http://www.w3.org/1999/xlink" x="0px" y="0px"
	 viewBox="0 0 40 40" style="enable-background:new 0 0 40 40;" xml:space="preserve">
<path id="Shape" d="M24,31.00006H7c-1.65685,0-3-1.34315-3-3v-10c0-1.65685,1.34315-3,3-3h18
	c0.34456,0,0.68175,0.05853,0.99961,0.17084C26.3125,15.06027,26.64922,15.00006,27,15.00006h6c1.65685,0,3,1.34314,3,3v14
	c0,1.65685-1.34315,3-3,3h-6c-1.65685,0-3-1.34315-3-3V31.00006z M24.17071,17.00006H7c-0.55228,0-1,0.44772-1,1v10
	c0,0.55228,0.44772,1,1,1h17v-11C24,17.64943,24.06015,17.31284,24.17071,17.00006L24.17071,17.00006z M33,33.00006
	c0.55228,0,1-0.44772,1-1v-14c0-0.55228-0.44772-1-1-1h-6c-0.55228,0-1,0.44772-1,1v14c0,0.55228,0.44772,1,1,1H33z M30,32.00006
	c-0.55228,0-1-0.44772-1-1s0.44772-1,1-1s1,0.44772,1,1S30.55228,32.00006,30,32.00006z M12,35.00006v-2h10v2H12z M18,14.00006
	c-0.55228,0-1-0.44772-1-1s0.44772-1,1-1s1,0.44772,1,1S18.55228,14.00006,18,14.00006z M21.41319,9.4637l-1.41421,1.41421
	c-1.17157-1.17157-3.07107-1.17157-4.24264,0L14.34212,9.4637C16.29474,7.51108,19.46057,7.51108,21.41319,9.4637z
	 M24.24162,6.63528L22.8274,8.04949c-2.73367-2.73367-7.16582-2.73367-9.89949,0l-1.41421-1.41421
	C13.30217,4.8468,15.65609,3.9684,18,4.00006C20.26235,4.03063,22.51537,4.90903,24.24162,6.63528z"/>
</svg>

<svg xmlns="http://www.w3.org/2000/svg" viewBox="0 0 40 40" style="enable-background:new 0 0 40 40" xml:space="preserve"><path d="M24 31H7a3 3 0 0 1-3-3V18a3 3 0 0 1 3-3h18c.345 0 .682.059 1 .17.313-.11.65-.17 1-.17h6a3 3 0 0 1 3 3v14a3 3 0 0 1-3 3h-6a3 3 0 0 1-3-3v-1zm.17-14H7a1 1 0 0 0-1 1v10a1 1 0 0 0 1 1h17V18c0-.35.06-.687.17-1zM33 33a1 1 0 0 0 1-1V18a1 1 0 0 0-1-1h-6a1 1 0 0 0-1 1v14a1 1 0 0 0 1 1h6zm-3-1a1 1 0 1 1 0-2 1 1 0 0 1 0 2zm-18 3v-2h10v2H12zm6-21a1 1 0 1 1 0-2 1 1 0 0 1 0 2zm3.413-4.536L20 10.878a3 3 0 0 0-4.243 0l-1.414-1.414a5 5 0 0 1 7.071 0zm2.829-2.829L22.827 8.05a7 7 0 0 0-9.9 0l-1.413-1.414A8.973 8.973 0 0 1 18 4a8.97 8.97 0 0 1 6.242 2.635z"/></svg>
